groups/oxygen/anhydride.svg

<?xml version='1.0' encoding='iso-8859-1'?>
<svg version='1.1' baseProfile='full'
              xmlns='http://www.w3.org/2000/svg'
                      xmlns:rdkit='http://www.rdkit.org/xml'
                      xmlns:xlink='http://www.w3.org/1999/xlink'
                  xml:space='preserve'
width='256px' height='256px' viewBox='0 0 256 256'>
<!-- END OF HEADER -->
<rect style='opacity:1.0;fill:#FFFFFF;stroke:none' width='256.0' height='256.0' x='0.0' y='0.0'> </rect>
<path class='bond-0 atom-0 atom-1' d='M 25.4,156.4 L 69.3,131.2' style='fill:none;fill-rule:evenodd;stroke:#000000;stroke-width:2.0px;stroke-linecap:butt;stroke-linejoin:miter;stroke-opacity:1' />
<path class='bond-1 atom-1 atom-2' d='M 73.1,133.4 L 73.2,97.5' style='fill:none;fill-rule:evenodd;stroke:#000000;stroke-width:2.0px;stroke-linecap:butt;stroke-linejoin:miter;stroke-opacity:1' />
<path class='bond-1 atom-1 atom-2' d='M 65.5,133.4 L 65.6,97.4' style='fill:none;fill-rule:evenodd;stroke:#000000;stroke-width:2.0px;stroke-linecap:butt;stroke-linejoin:miter;stroke-opacity:1' />
<path class='bond-2 atom-1 atom-3' d='M 69.3,131.2 L 102.3,150.3' style='fill:none;fill-rule:evenodd;stroke:#000000;stroke-width:2.0px;stroke-linecap:butt;stroke-linejoin:miter;stroke-opacity:1' />
<path class='bond-3 atom-3 atom-4' d='M 123.9,150.4 L 157.0,131.4' style='fill:none;fill-rule:evenodd;stroke:#000000;stroke-width:2.0px;stroke-linecap:butt;stroke-linejoin:miter;stroke-opacity:1' />
<path class='bond-4 atom-4 atom-5' d='M 160.8,133.6 L 160.8,97.6' style='fill:none;fill-rule:evenodd;stroke:#000000;stroke-width:2.0px;stroke-linecap:butt;stroke-linejoin:miter;stroke-opacity:1' />
<path class='bond-4 atom-4 atom-5' d='M 153.2,133.6 L 153.2,97.6' style='fill:none;fill-rule:evenodd;stroke:#000000;stroke-width:2.0px;stroke-linecap:butt;stroke-linejoin:miter;stroke-opacity:1' />
<path class='bond-5 atom-4 atom-6' d='M 157.0,131.4 L 190.0,150.5' style='fill:none;fill-rule:evenodd;stroke:#000000;stroke-width:2.0px;stroke-linecap:butt;stroke-linejoin:miter;stroke-opacity:1' />
<path d='M 67.1,132.5 L 69.3,131.2 L 70.9,132.2' style='fill:none;stroke:#000000;stroke-width:2.0px;stroke-linecap:butt;stroke-linejoin:miter;stroke-miterlimit:10;stroke-opacity:1;' />
<path d='M 155.3,132.3 L 157.0,131.4 L 158.6,132.3' style='fill:none;stroke:#000000;stroke-width:2.0px;stroke-linecap:butt;stroke-linejoin:miter;stroke-miterlimit:10;stroke-opacity:1;' />
<path class='atom-1' d='M38.0126,178.37 C39.6584,177.425 38.3978,175.231 36.752,176.176 C35.1062,177.122 33.8456,174.927 35.4914,173.982 C37.1371,173.036 35.8765,170.842 34.2307,171.787 C32.585,172.733 31.3244,170.539 32.9701,169.593 C34.6159,168.648 33.3552,166.453 31.7095,167.399 C30.0637,168.344 28.8031,166.15 30.4488,165.204 C32.0946,164.259 30.834,162.065 29.1882,163.01 C27.5425,163.955 26.2818,161.761 27.9276,160.816 C29.5733,159.87 28.3127,157.676 26.6669,158.621 C25.0212,159.567 23.7606,157.372 25.4063,156.427 C27.0521,155.482 25.7914,153.287 24.1457,154.233 C22.4999,155.178 21.2393,152.984 22.8851,152.038 C24.5308,151.093 23.2702,148.899 21.6244,149.844 C19.9787,150.789 18.718,148.595 20.3638,147.65 C22.0095,146.704 20.7489,144.51 19.1032,145.455 C17.4574,146.401 16.1968,144.206 17.8425,143.261 C19.4883,142.315 18.2276,140.121 16.5819,141.067 C14.9361,142.012 13.6755,139.818 15.3213,138.872 C16.967,137.927 15.7064,135.732 14.0606,136.678 C12.4149,137.623 11.1542,135.429 12.8,134.484' style='fill:none;stroke:#7F7F7F;stroke-width:2.0px;stroke-linecap:butt;stroke-linejoin:miter;stroke-opacity:1' />
<text x='60.3' y='95.8' class='atom-2' style='font-size:30px;font-style:normal;font-weight:normal;fill-opacity:1;stroke:none;font-family:sans-serif;text-anchor:start;fill:#000000' >O</text>
<text x='104.0' y='171.8' class='atom-3' style='font-size:30px;font-style:normal;font-weight:normal;fill-opacity:1;stroke:none;font-family:sans-serif;text-anchor:start;fill:#000000' >O</text>
<text x='148.0' y='96.0' class='atom-5' style='font-size:30px;font-style:normal;font-weight:normal;fill-opacity:1;stroke:none;font-family:sans-serif;text-anchor:start;fill:#000000' >O</text>
<text x='191.6' y='172.0' class='atom-6' style='font-size:30px;font-style:normal;font-weight:normal;fill-opacity:1;stroke:none;font-family:sans-serif;text-anchor:start;fill:#000000' >C</text>
<text x='212.6' y='172.0' class='atom-6' style='font-size:30px;font-style:normal;font-weight:normal;fill-opacity:1;stroke:none;font-family:sans-serif;text-anchor:start;fill:#000000' >H</text>
<text x='233.5' y='184.1' class='atom-6' style='font-size:20px;font-style:normal;font-weight:normal;fill-opacity:1;stroke:none;font-family:sans-serif;text-anchor:start;fill:#000000' >3</text>
</svg>

<svg height="256" viewBox="0 0 256 256" width="256" xmlns="http://www.w3.org/2000/svg"><path d="m0 0h256v256h-256z" fill="#fff"/><g fill="none" stroke-width="2"><path d="m25.4 156.4 43.9-25.2" stroke="#000"/><path d="m73.1 133.4.1-35.9" stroke="#000"/><path d="m65.5 133.4.1-36" stroke="#000"/><path d="m69.3 131.2 33 19.1" stroke="#000"/><path d="m123.9 150.4 33.1-19" stroke="#000"/><path d="m160.8 133.6v-36" stroke="#000"/><path d="m153.2 133.6v-36" stroke="#000"/><path d="m157 131.4 33 19.1" stroke="#000"/><path d="m67.1 132.5 2.2-1.3 1.6 1" stroke="#000" stroke-miterlimit="10"/><path d="m155.3 132.3 1.7-.9 1.6.9" stroke="#000" stroke-miterlimit="10"/><path d="m38.013 178.37c1.645-.945.385-3.139-1.261-2.194-1.646.946-2.906-1.249-1.261-2.194 1.646-.946.386-3.14-1.26-2.195-1.646.946-2.907-1.248-1.261-2.194 1.646-.945.385-3.14-1.26-2.194-1.646.945-2.907-1.249-1.261-2.195 1.646-.945.385-3.139-1.261-2.194-1.645.945-2.906-1.249-1.26-2.194 1.645-.946.385-3.14-1.261-2.195-1.646.946-2.906-1.249-1.261-2.194 1.646-.945.385-3.14-1.26-2.194-1.646.945-2.907-1.249-1.261-2.195 1.646-.945.385-3.139-1.261-2.194-1.645.945-2.906-1.249-1.26-2.194 1.646-.946.385-3.14-1.261-2.195-1.646.946-2.906-1.249-1.26-2.194 1.645-.946.385-3.14-1.261-2.194-1.646.945-2.906-1.249-1.261-2.195 1.646-.945.385-3.14-1.26-2.194-1.646.945-2.907-1.249-1.261-2.194" stroke="#7f7f7f"/></g><text font-family="sans-serif" font-size="30" x="60.3" y="95.8">O</text><text font-family="sans-serif" font-size="30" x="104" y="171.8">O</text><text font-family="sans-serif" font-size="30" x="148" y="96">O</text><text font-family="sans-serif" font-size="30" x="191.6" y="172">C</text><text font-family="sans-serif" font-size="30" x="212.6" y="172">H</text><text font-family="sans-serif" font-size="20" x="233.5" y="184.1">3</text></svg>
